X: 1609
T: Joe Yates Cadrill
B: australian traditional tunes wiki
M:6/8
L:1/8
R: Crooked Jig
Q: 3/8=100
K:G
V:1 
D2|"G"GAB AGA|\
BAEG3"D"d3|\
"C"ABc "D"B2A|"G"[G3B3-][G2B2]D|!
GAB AGA|\
BGE D3"D"d3|\
"A"ABAG2F|"D"D6||!
"G"BBB BAG|BBB BAG|"C"ccc cBA|ccc cBc|!
"G"dcB AGF|\
EFGD3"D"d3|\
"C"ABc"D"B2A|"G"[D6G6]||!
"G"G3"D"d3|"C"BcB AGE|"D"D6|"G"G3"D"d3|"A7"G2FG2A|!
"D"F3DEF|\
"C"GAB "G"[B3d3-][Bd]cB|"Am"ABc  "C"[c3e3-][c2e2]e|
"G"dBG "D"D2A|"G"[D6G6]||
% abcbook-tune_id 6342d53a97ccc9caf349f943


% abcbook-boost 0
% abcbook-tablature 
% abcbook-transpose 
% abcbook-lastupdated 1665324373781
% abcbook-soundfonts 
% abcbook-repeats 1
% NFF Book 2010

